X:21
T:Thou Soft Flowing Avon
N:page 17 on manuscript
M:3/4
L:1/8
K:F
F2 | c4 BA | d2 c2 E2 | F2 B2 A2 | {A}G4 e2 | f2 a2 g2 | f2 c2 A2 | d2 G2 c2 | {B}A4 c2 | f4 d2 | e4 gc |
{e}d2 c2 =B2 | c4 c2 | g2 f2 e2 | a2 g2 f2 | (e<g)(c<e) GB | A2 z2 c2 | f3 e d2 | g2 f2 e2 | ad(fe)(d^c) | d4 z d |
c3 B A2 | d2 c2 _e2 | d3 =e f2 | e2 z2 c2 | a3 g (f>g/a//) | g2 B2 (3Ace | {e}dc/B/ A2 TG2 | F4 ||

